X:1
T:Vespers
T:J. W. Elliot
T:Vespers
C:J. W. Elliot
%%score { ( 1 2 ) | ( 3 4 ) }
L:1/8
Q:1/2=120
M:3/2
K:Eb
V:1 treble nm="Piano" snm="Pno."
V:2 treble 
V:3 bass 
V:4 bass 
V:1
 G4 G4 G4 | (G4 F4) E4 | A8 A4 | G8 B4 | (B4 F4) G4 | E8 G4 | (B4 F4) G4 | E8 F4 | G8 G4 | %9
 (G4 =A4) B4 | (d6 c2) (B2 =A2) | G8 B4 | (B4 F4) G4 | (B4 F4) G4 | (c6 B2) (A2 F2) | E12 |] %16
V:2
 E4 E4 E4 | (E4 D4) E4 | E8 E4 | D8 E4 | D8 D4 | E8 E4 | (E4 C4) D4 | E8 D4 | E8 E4 | G8 G4 | %10
 ^F8 F4 | G8 D4 | D8 E4 | D8 E4 | C4 D8 | E12 |] %16
V:3
 B,4 B,4 B,4 | (B,4 A,4) B,4 | C8 C4 | B,8 G,4 | A,8 B,4 | G,8 E,4 | (G,4 A,4) B,4 | G,8 B,4 | %8
 B,8 B,4 | (B,4 C4) D4 | =A,8 (D2 C2) | B,8 G,4 | A,8 G,4 | A,8 G,4 | (A,6 G,2) (F,2 A,2) | G,12 |] %16
V:4
 E,4 E,4 E,4 | E,8 E,4 | E,8 E,4 | E,8 E,4 | E,8 E,4 | (E,4 D,4) C,4 | B,,8 B,,4 | E,8 B,,4 | %8
 E,8 E,4 | D,8 D,4 | D,8 D,4 | G,8 G,,4 | B,,8 B,,4 | B,,8 E,4 | A,,4 B,,8 | E,12 |] %16

